X: 1
T: Gypsy Princess
M: 4/4
L: 1/8
R: barndance
K: Gmaj
(B2 B)B B2B2|ABAG E2 D2|(G2G)B d2 Bd|e2 dB A2 GA|
(B2 B)B B2B2|ABAG E2 D2|(G2G)A BddB|A2 G2 G2 z2:|
(d2 d)d d2 d2 |B2 BA G2 Bd|(e2e)e e2 e2|B2 BA G2 zB|
(d2 d)d d2 d2 |B2 BA G2 Bd|(g2 g)e dBGA|B2 A2 G2 z2:|
